!!!COM:	la Rue, Pierre de
!!!CDT:	~1452///-1518/11/20
!!!OTL:	Credo sex vocum
!!!AGN:	Mass section; Credo
!!!SCT:	Rue1034
!!!SCA:	Rue1034
!!!voices:	6
**kern	**kern	**kern	**kern	**kern	**kern
*staff6	*staff5	*staff4	*staff3	*staff2	*staff1
*Ivox	*Ivox	*Ivox	*Ivox	*Ivox	*Ivox
*I"Bassus2	*I"Bassus1	*I"Tenor2	*I"Tenor1	*I"Contra	*I"Discantus
*I'B2	*I'B1	*I'T2	*I'T1	*I'C	*I'D
*>[A,B,C]	*>[A,B,C]	*>[A,B,C]	*>[A,B,C]	*>[A,B,C]	*>[A,B,C]
*>A	*>A	*>A	*>A	*>A	*>A
*clefF4	*clefF4	*clefF4	*clefGv2	*clefG2	*clefG2
*k[]	*k[]	*k[]	*k[]	*k[]	*k[]
*M2/1	*M2/1	*M2/1	*M2/1	*M2/1	*M2/1
*met(C)	*met(C)	*met(C)	*met(C)	*met(C)	*met(C)
=1-	=1-	=1-	=1-	=1-	=1-
!!section: Patrem omnipotentem
!!!OMD: Patrem omnipotentem
0r	1.E	0r	1r	1e	0r
.	.	.	1B	1e	.
.	4D\	.	.	.	.
.	4C/	.	.	.	.
=2	=2	=2	=2	=2	=2
0r	2BB/	0r	2B\	2g/	0r
.	2AA/	.	1c	1a	.
.	2.C/	.	.	.	.
.	.	.	[2c\	2g/	.
.	4D\	.	.	.	.
=3	=3	=3	=3	=3	=3
1EE	[0E	0r	2c\]	2e/	1r
.	.	.	2.B\	2.g/	.
2GG/	.	.	.	.	1b
.	.	.	4G/	4f/	.
2GG/	.	.	2B\	4e/	.
.	.	.	.	4d/	.
=4	=4	=4	=4	=4	=4
1AA	1E]	1r	1A	2c/	1cc
.	.	.	.	2c/	.
1EE	1r	1E	1G	1e	2cc\
.	.	.	.	.	[2b\
=5	=5	=5	=5	=5	=5
0r	0r	2G\	0r	0r	4b\]
.	.	.	.	.	4g/
.	.	2G\	.	.	2b\
.	.	1A	.	.	1a
=6	=6	=6	=6	=6	=6
1EE	1G	0E	2r	2.e/	1g
.	.	.	2c\	.	.
.	.	.	.	4f/	.
2EE/	2G\	.	2B\	2g/	1r
2EE/	2G\	.	2B\	2g/	.
=7	=7	=7	=7	=7	=7
2FF/	2F\	0r	2A/	1a	0r
2FF/	2D\	.	2A/	.	.
2EE/	[1E	.	2c\	2.g/	.
2EE/	.	.	2B\	.	.
.	.	.	.	4f/	.
=8	=8	=8	=8	=8	=8
0EE	2E\]	2.E\	1G	0e	2.g/
.	4D\	.	.	.	.
.	4C/	4F\	.	.	4a/
.	2BB/	2G\	1r	.	2b\
.	2BB/	2G\	.	.	2b\
=9	=9	=9	=9	=9	=9
0r	1AA	1A	0r	0r	1cc
.	1r	2G\	.	.	2b\
.	.	2F\	.	.	2a/
=10	=10	=10	=10	=10	=10
1EE	1.BB	0E	1r	1e	1g
2EE/	.	.	2.B\	1g	2r
2EE/	2GG/	.	.	.	2b\
.	.	.	4c\	.	.
=11	=11	=11	=11	=11	=11
1FF	1AA	0r	2d\	2f/	2a/
.	.	.	2d\	2d/	2a/
1EE	2.GG/	.	1e	[1g	2cc\
.	.	.	.	.	[2b\
.	4AA/	.	.	.	.
=12	=12	=12	=12	=12	=12
0r	2BB/	1r	2.d\	2g/]	2b\]
.	2C/	.	.	2f/	1a
.	.	.	4c\	.	.
.	2D\	1B	1B	1e	.
.	2E\	.	.	.	2g#i/
=13	=13	=13	=13	=13	=13
2AA/	2AA/	1c	1A	0r	1a
2AA/	1E	.	.	.	.
2GG/	.	2B\	1r	.	1r
2EE/	2E\	[2B\	.	.	.
=14	=14	=14	=14	=14	=14
2GG/	2D\	2B\]	0r	0r	0r
2AA/	2C/	2A\	.	.	.
1EE	2BB/	2A\	.	.	.
.	2BB/	2G#i\	.	.	.
=15	=15	=15	=15	=15	=15
2r	1AA	1A	2r	2r	2r
1FF	.	.	1c	1f	1a
.	2AA/	2A\	.	.	.
2FF/	2AA/	2A\	2c\	2f/	2a/
=16	=16	=16	=16	=16	=16
2AA/	2C/	2A\	2c\	2e/	2a/
2FF/	2AA/	2A\	2d\	2d/	2a/
2EE/	1E	2B\	2.G/	2e/	2.g/
2EE/	.	2B\	.	2e/	.
.	.	.	4A/	.	4f/
=17	=17	=17	=17	=17	=17
2EE/	1E	1G	2B\	2g/	2e/
2EE/	.	.	2B\	2e/	2g/
[1EE	1BB	2G\	[1B	1g	2e/
.	.	[2E\	.	.	[2g/
=18	=18	=18	=18	=18	=18
0EE]	1BB	2E\]	0B]	2e/	4g/]
.	.	.	.	.	4a/
.	.	2E\	.	2.g/	2b\
.	1E	2G\	.	.	1e
.	.	.	.	4a/	.
.	.	2E\	.	2b\	.
=19	=19	=19	=19	=19	=19
0r	0r	2G\	0r	2e/	1r
.	.	2E\	.	2g/	.
.	.	[1G	.	2e/	2r
.	.	.	.	[2g/	2b\
=20	=20	=20	=20	=20	=20
0r	0r	1G]	0r	4g/]	2b\
.	.	.	.	4f/	.
.	.	.	.	1e	2b\
.	.	1F	.	.	1a
.	.	.	.	2d/	.
=21	=21	=21	=21	=21	=21
0r	2.E\	1E	2r	1e	2.g/
.	.	.	2e\	.	.
.	4F\	.	.	.	4a/
.	2G\	1r	2e\	1r	2b\
.	2A\	.	2c\	.	2cc\
=22	=22	=22	=22	=22	=22
0r	1G	1r	1d	0r	4b\
.	.	.	.	.	4a/
.	.	.	.	.	4g/
.	.	.	.	.	4f/
.	2.C/	2r	1c	.	2.e/
.	.	2c\	.	.	.
.	4D\	.	.	.	4f/
=23	=23	=23	=23	=23	=23
1r	2E\	2c\	1r	0r	2g/
.	2F\	2A\	.	.	1a
2r	1E	2B\	2r	.	.
2EE/	.	2E\	2B\	.	2g#i/
=24	=24	=24	=24	=24	=24
2FF/	0r	2C/	2A/	0r	1a
1AA	.	2.F\	1c	.	.
.	.	.	.	.	1r
.	.	4E\	.	.	.
2GG/	.	[2E\	2B\	.	.
=25	=25	=25	=25	=25	=25
1FF	1r	2E\]	1A	1r	1r
.	.	2D\	.	.	.
1EE	2r	1E	1G	2e/	2r
.	2E\	.	.	2e/	2g/
=26	=26	=26	=26	=26	=26
0r	2F\	0r	0r	2.c/	2a/
.	1A	.	.	.	1cc
.	.	.	.	8d/L	.
.	.	.	.	8e/J	.
.	.	.	.	4f/	.
.	.	.	.	4e/	.
.	2G\	.	.	[2e/	2b\
=27	=27	=27	=27	=27	=27
1r	1F	1r	1r	2e/]	1a
.	.	.	.	2d/	.
2r	2E\	2r	2r	1e	1g
2EE/	2E\	2E\	2G/	.	.
=28	=28	=28	=28	=28	=28
2AA/	2C/	2E\	2A/	0r	0r
2AA/	2C/	2F\	2.c\	.	.
2EE/	2BB/	2G\	.	.	.
.	.	.	4B\	.	.
2GG/	2BB/	2E\	2G/	.	.
=29	=29	=29	=29	=29	=29
2FF/	2AA/	2E\	1A	1r	1r
2FF/	2AA/	2D\	.	.	.
1EE	1BB	1E	1G	2r	2r
.	.	.	.	2e/	2g/
=30	=30	=30	=30	=30	=30
0r	0r	0r	2E/	2e/	2g/
.	.	.	2D/	2f/	2a/
.	.	.	1G	2.d/	2b\
.	.	.	.	.	2g/
.	.	.	.	4G/	.
=31	=31	=31	=31	=31	=31
0r	0r	1r	1D	2B/	2g/
.	.	.	.	2A/	2f#i/
.	.	2r	2r	4G/	1g
.	.	.	.	4A/	.
.	.	[2G\	[2B\	4B/	.
.	.	.	.	4c/	.
=32	=32	=32	=32	=32	=32
0r	0r	2G\]	2B\]	4d/	0r
.	.	.	.	4B/	.
.	.	4F\	4A/	1e	.
.	.	4E\	4G/	.	.
.	.	1F	1A	.	.
.	.	.	.	2d/	.
=33	=33	=33	=33	=33	=33
1EE	1BB	[0E	[0B	1e	2r
.	.	.	.	.	2g/
2EE/	2BB/	.	.	2r	2g/
2EE/	[2BB/	.	.	2g/	2g/
=34	=34	=34	=34	=34	=34
2EE/	2BB/]	1E]	0B]	2g/	2.g/
1EE	2BB/	.	.	2g/	.
.	.	.	.	.	4f/
.	2BB/	2r	.	2.g/	1e
2EE/	[2E\	2B\	.	.	.
.	.	.	.	4f/	.
=35	=35	=35	=35	=35	=35
2AA/	2E\]	2c\	0r	1e	0r
2AA/	2C/	2c\	.	.	.
2GG/	4E\	2B\	.	1r	.
.	2E\	.	.	.	.
2FF/	.	2A\	.	.	.
.	4D\	.	.	.	.
=36	=36	=36	=36	=36	=36
1EE	1E	1G	2r	2r	2r
.	.	.	2E/	2g/	2b\
1r	1r	1r	2A/	2a/	2cc\
.	.	.	2F/	2a/	2cc\
=37	=37	=37	=37	=37	=37
1r	1r	1r	2G/	2g/	2b\
.	.	.	2D/	2f/	2a/
1EE	2.E\	2.B\	2G/	2e/	2g/
.	.	.	2E/	2g/	4r
.	4D\	4c\	.	.	4g/
=38	=38	=38	=38	=38	=38
2FF/	2C/	2A\	2c\	2f/	2a/
2GG/	2BB/	2.G\	2.e\	2e/	2b\
2EE/	2E\	.	.	2g/	4b\
.	.	4B\	4A/	.	4g/
2FF/	4D\	2A\	2A/	2f/	2a/
.	4C/	.	.	.	.
=39	=39	=39	=39	=39	=39
2GG/	2.BB/	2G\	2r	2e/	2b\
2EE/	.	2B\	2G/	2g/	2g/
.	4GG/	.	.	.	.
2FF/	2AA/	2A\	2c\	2f/	2r
2GG/	[2BB/	2G\	2B\	2d/	[2g/
=40	=40	=40	=40	=40	=40
1EE	2BB/]	1B	2E/	1g	4g/]
.	.	.	.	.	4a/
.	2GG/	.	2.e\	.	2b\
2r	2AA/	2A\	.	1c	2cc\
.	.	.	4d\	.	.
2AA/	2C/	4G\	4c\	.	2a/
.	.	[4F\	4B\	.	.
=41	=41	=41	=41	=41	=41
2GG/	2D\	4F\]	1B	0r	2b\
.	.	4E\	.	.	.
2EE/	2E\	1E	.	.	2g/
1FF	1AA	.	1r	.	2.a/
.	.	2D\	.	.	.
.	.	.	.	.	4f/
=42	=42	=42	=42	=42	=42
0EE	0BB	0E	2r	1r	2g/
.	.	.	2.B\	.	1e
.	.	.	.	2r	.
.	.	.	4B\	.	.
.	.	.	2B\	[2g/	4d/
.	.	.	.	.	4c/
=43	=43	=43	=43	=43	=43
2r	1r	2.E\	2B\	4g/]	0B
.	.	.	.	4g/	.
2.EE/	.	.	1B	2g/	.
.	.	4E\	.	.	.
.	2.BB/	2E\	.	2g/	.
4EE/	.	.	.	.	.
2EE/	.	2E\	2G/	[2g/	.
.	4BB/	.	.	.	.
=44	=44	=44	=44	=44	=44
2EE/	2BB/	1G	2r	2g/]	0r
1GG	2BB/	.	2B\	2e/	.
.	2BB/	1E	2B\	2r	.
2EE/	[2E\	.	2B\	[2g/	.
=45	=45	=45	=45	=45	=45
2r	2E\]	2.G\	2.c\	2g/]	0r
2.C/	1E	.	.	2g/	.
.	.	4G\	8B/L	.	.
.	.	.	8A/J	.	.
.	.	2G\	2G/	2.e/	.
4C/	.	.	.	.	.
2C/	2AA/	2C/	2A/	.	.
.	.	.	.	4e/	.
=46	=46	=46	=46	=46	=46
2BB/	2D\	2G\	1B	2d/	0r
2GG/	2BB/	2G\	.	1e	.
2AA/	2C/	1F	1r	.	.
2BB/	2D\	.	.	2d/	.
=47	=47	=47	=47	=47	=47
0EE	2.GG/	0E	1r	0e	2r
.	.	.	.	.	1b
.	4AA/	.	.	.	.
.	1BB	.	2r	.	.
.	.	.	2B\	.	2b\
=48	=48	=48	=48	=48	=48
0r	0r	0r	2e\	0r	2cc\
.	.	.	2.d\	.	2.b\
.	.	.	4B\	.	4g/
.	.	.	2c\	.	2a/
=49	=49	=49	=49	=49	=49
0r	0r	2r	1B	0r	2b\
.	.	2E\	.	.	2e/
.	.	2A\	1r	.	2f/
.	.	2G\	.	.	[2e/
=50	=50	=50	=50	=50	=50
0r	0r	4G\	1r	1r	4e/]
.	.	4E\	.	.	4c/
.	.	2F\	.	.	2d/
.	.	1E	2r	2r	4e/
.	.	.	.	.	4f/
.	.	.	2c\	2e/	4g/
.	.	.	.	.	4a/
=51	=51	=51	=51	=51	=51
0r	0r	0r	2d\	2f/	2b\
.	.	.	2.c\	2.e/	1a
.	.	.	4A/	4c/	.
.	.	.	2B\	2d/	2g#i/
=52	=52	=52	=52	=52	=52
2.AA/	2r	2.A\	2A/	2e/	2a/
.	2E\	.	2e\	2.a/	2.cc\
4AA/	.	4A\	.	.	.
2AA/	2E\	2A\	2e\	.	.
.	.	.	.	4a/	4cc\
2AA/	[2C/	2E\	2A/	[2a/	[2cc\
=53	=53	=53	=53	=53	=53
1FF	2C/]	1A	2.c\	2a/]	2cc\]
.	2F\	.	.	2a/	2cc\
.	.	.	4B\	.	.
2GG/	2D\	2B\	2G/	2g/	2b\
2EE/	2E\	2G\	2G/	2g/	2b\
=54	=54	=54	=54	=54	=54
2r	1AA	2r	1c	1e	1a
2AA/	.	2A\	.	.	.
2GG/	2r	2B\	2r	2r	2r
2AA/	2C/	2c\	[2e\	2e/	2a/
=55	=55	=55	=55	=55	=55
2EE/	2BB/	2G\	4e\]	2g/	2g/
.	.	.	4d\	.	.
2FF/	2AA/	1C	2.c\	2f/	2a/
2.C/	2.E\	.	.	2g/	2e/
.	.	.	8B/L	.	.
.	.	.	8A/J	.	.
.	.	2C/	4G/	2e/	[2g/
8BB/L	8D/L	.	4A/	.	.
8AA/J	8C/J	.	.	.	.
=56	=56	=56	=56	=56	=56
1GG	2BB/	1G	1B	2.g/	4g/]
.	.	.	.	.	8f/L
.	.	.	.	.	8e/J
.	1D	.	.	.	1d
.	.	.	.	8f/L	.
.	.	.	.	8e/J	.
1D	.	1F	[1A	1d	.
.	2D\	.	.	.	[2a/
=57	=57	=57	=57	=57	=57
1AA	2C/	1E	0A]	2e/	4a/]
.	.	.	.	.	4g/
.	2C/	.	.	2c/	2e/
2r	2D\	2r	.	2r	2f/
2AA/	2E\	2E\	.	2c/	2e/
=58	=58	=58	=58	=58	=58
2AA/	2C/	2F\	0r	2A/	1r
2GG/	2BB/	2G\	.	2B/	.
2FF/	2AA/	2.C/	.	2c/	2r
2FF/	2A\	.	.	4A/	2cc\
.	.	4D\	.	4B/	.
=59	=59	=59	=59	=59	=59
1EE	2G\	1E	1r	4c/	2cc\
.	.	.	.	4d/	.
.	2E\	.	.	2e/	2b\
1r	2F\	1r	2r	1A	2a/
.	2F\	.	2d\	.	2a/
=60	=60	=60	=60	=60	=60
[0EEl	1E	2r	2.e\	2B/	[0gl
.	.	2C/	.	1e	.
.	.	.	4d\	.	.
.	1r	1G	2c\	.	.
.	.	.	2c\	2e/	.
=61	=61	=61	=61	=61	=61
0EE]	0El	0Gl	0Bl	0el	0g]
!!LO:LB:i:g=z
=62||	=62||	=62||	=62||	=62||	=62||
*>B	*>B	*>B	*>B	*>B	*>B
*clefF4	*clefF4	*clefF4	*clefGv2	*clefG2	*clefG2
*k[]	*k[]	*k[]	*k[]	*k[]	*k[]
*M2/1	*M2/1	*M2/1	*M2/1	*M2/1	*M2/1
*met(C2)	*met(C2)	*met(C2)	*met(C2)	*met(C2)	*met(C2)
!!section: Et incarnatus est
!!!OMD: Et incarnatus est
0EE	0E	0G	0B	0e	0g
=63.	=63.	=63.	=63.	=63.	=63.
1EE	1E	1G	1B	1e	1g
1GG	1E	1G	1B	1e	1g
=64	=64	=64	=64	=64	=64
1FF	1AA	1c	1A	1f	1a
1FF	1AA	1F	1A	1d	1a
=65.	=65.	=65.	=65.	=65.	=65.
[0EE	[0E	[0G	1B	0e	1g
.	.	.	2r	.	2r
.	.	.	[2e\	.	[2g/
=66	=66	=66	=66	=66	=66
0EE]	0E]	0G]	2e\]	0r	2g/]
.	.	.	4d\	.	4f/
.	.	.	4c\	.	4e/
.	.	.	2e\	.	2g/
.	.	.	4d\	.	4f/
.	.	.	4c\	.	4e/
=67.	=67.	=67.	=67.	=67.	=67.
1r	1r	1r	2B\	2r	2d/
.	.	.	2E/	1g	1e
[1EE	1G	1B	1r	.	.
.	.	.	.	4f/	4d/
.	.	.	.	4e/	4c/
=68	=68	=68	=68	=68	=68
1EE]	1G	1.B	1r	2g/	2e/
.	.	.	.	4f/	4d/
.	.	.	.	4e/	4c/
1GG	1G	.	1B	1d	2B/
.	.	2G\	.	.	2b\
=69.	=69.	=69.	=69.	=69.	=69.
1FF	2.C/	2A\	1c	1f	2a/
.	.	2F\	.	.	2.cc\
.	4D\	.	.	.	.
1EE	1E	[1c	1G	1g	.
.	.	.	.	.	4b\
.	.	.	.	.	2g/
=70	=70	=70	=70	=70	=70
0FF	0AA	2c\]	1c	2.f/	2a/
.	.	4B\	.	.	1cc
.	.	4A\	.	4e/	.
.	.	2c\	1A	2c/	.
.	.	2F\	.	2d/	4b\
.	.	.	.	.	4a/
=71.	=71.	=71.	=71.	=71.	=71.
0EE	0E	2r	0B	1e	1g
.	.	1G	.	.	.
.	.	.	.	2r	2r
.	.	2G\	.	2B/	2e/
=72	=72	=72	=72	=72	=72
0r	0r	2.E\	0r	2.e/	2.g/
.	.	4F\	.	4d/	4f/
.	.	2G\	.	4c/	4e/
.	.	.	.	4B/	4d/
.	.	[2A\	.	[2c/	[2f/
=73.	=73.	=73.	=73.	=73.	=73.
0r	0r	4A\]	0r	2c/]	2f/]
.	.	4G\	.	.	.
.	.	4F\	.	1B	1e
.	.	4E\	.	.	.
.	.	1F	.	.	.
.	.	.	.	2A/	2d/
=74	=74	=74	=74	=74	=74
2r	2r	0E	1r	0B	0e
1EE	1G	.	.	.	.
.	.	.	2r	.	.
2GG/	2G\	.	2B\	.	.
=75.	=75.	=75.	=75.	=75.	=75.
2FF/	2A\	0r	2.c\	0r	0r
1AA	1F	.	.	.	.
.	.	.	4B\	.	.
.	.	.	4A/	.	.
.	.	.	4G/	.	.
2GG/	[2E\	.	[2B\	.	.
=76	=76	=76	=76	=76	=76
1FF	4E\]	0r	2B\]	1r	1r
.	4D\	.	.	.	.
.	4C/	.	1A	.	.
.	8BB/L	.	.	.	.
.	8AA/J	.	.	.	.
1EE	1BB	.	.	2r	2r
.	.	.	2G#i/	2B/	2b\
=77.	=77.	=77.	=77.	=77.	=77.
0r	1AA	2r	1A	2.e/	2.cc\
.	.	1A	.	.	.
.	.	.	.	4d/	4b\
.	1r	.	1r	4c/	4a/
.	.	.	.	4B/	4g/
.	.	2G\	.	2d/	[2b\
=78	=78	=78	=78	=78	=78
1r	0r	2A\	0r	4d/	2b\]
.	.	.	.	4c/	.
.	.	2F\	.	4B/	1a
.	.	.	.	4A/	.
1EE	.	1E	.	1B	.
.	.	.	.	.	2g#i/
=79.	=79.	=79.	=79.	=79.	=79.
0FF	0AA	1r	0c	1A	1a
.	.	1A	.	1f	1a
=80	=80	=80	=80	=80	=80
1GG	1BB	1D	1B	1d	1g
[1AA	[1C	[1A	1A	[1c	1e
=81.	=81.	=81.	=81.	=81.	=81.
2AA/]	1C]	1A]	1c	2c/]	1f
2GG/	.	.	.	2d/	.
1EE	1GG	1G	2B\	1e	1g
.	.	.	2G/	.	.
=82	=82	=82	=82	=82	=82
1.FF	0AA	1F	[0c	1A	1c
.	.	1C	.	4A/	4c/
.	.	.	.	4B/	4d/
2EE/	.	.	.	4c/	4e/
.	.	.	.	4d/	4f/
=83.	=83.	=83.	=83.	=83.	=83.
[0EEl	1.GG	4C/	1c]	1.e	1.g
.	.	4D\	.	.	.
.	.	4E\	.	.	.
.	.	4F\	.	.	.
.	.	[1G	1B	.	.
.	2BB/	.	.	2B/	2e/
=84	=84	=84	=84	=84	=84
0EE_	[0BBl	1G]	[0Gl	[0Bl	[0el
.	.	1E	.	.	.
=85.	=85.	=85.	=85.	=85.	=85.
0EE]	0BB]	0El	0G]	0B]	0e]
!!LO:LB:i:g=z
=86||	=86||	=86||	=86||	=86||	=86||
*>C	*>C	*>C	*>C	*>C	*>C
*clefF4	*clefF4	*clefF4	*clefGv2	*clefG2	*clefG2
*k[]	*k[]	*k[]	*k[]	*k[]	*k[]
*M2/1	*M2/1	*M2/1	*M2/1	*M2/1	*M2/1
*met(C2)	*met(C2)	*met(C2)	*met(C2)	*met(C2)	*met(C2)
!!section: Crucifixus
!!!OMD: Crucifixus
0r	0E	1B	0r	0r	0r
.	.	2G\	.	.	.
.	.	2G\	.	.	.
=87.	=87.	=87.	=87.	=87.	=87.
1AA	1C	1c	0r	0r	0r
2FF/	1F	2r	.	.	.
2FF/	.	[2c\	.	.	.
=88	=88	=88	=88	=88	=88
1C	0E	2c\]	0r	0r	1r
.	.	2c\	.	.	.
2r	.	1G	.	.	1g
[2C/	.	.	.	.	.
=89.	=89.	=89.	=89.	=89.	=89.
2C/]	2r	0A	1r	1e	2e/
2C/	2E\	.	.	.	2e/
2.AA/	1F	.	1c	2c/	[1a
.	.	.	.	2c/	.
4GG/	.	.	.	.	.
=90	=90	=90	=90	=90	=90
1FF	1F	1D	2A/	1f	1a]
.	.	.	2A/	.	.
1EE	[1G	1E	2c\	2c/	1g
.	.	.	2B\	[2e/	.
=91.	=91.	=91.	=91.	=91.	=91.
0r	2G\]	0r	1G	4e/]	1e
.	.	.	.	4f/	.
.	2E\	.	.	2g/	.
.	2F\	.	2A/	2c/	1r
.	2G\	.	2B\	[2g/	.
=92	=92	=92	=92	=92	=92
0r	1C	0r	2E/	2g/]	2r
.	.	.	2G/	2e/	1e
.	1D	.	1F	2f/	.
.	.	.	.	4e/	2d/
.	.	.	.	4d/	.
=93.	=93.	=93.	=93.	=93.	=93.
0r	2AA/	0r	1E	1c	2e/
.	1E	.	.	.	1g
.	.	.	1r	2r	.
.	2C/	.	.	[2e/	2e/
=94	=94	=94	=94	=94	=94
0r	1D	0r	0r	2e/]	2f/
.	.	.	.	2d/	4e/
.	.	.	.	.	4d/
.	2AA/	.	.	2e/	1c
.	[2E\	.	.	[2g/	.
=95.	=95.	=95.	=95.	=95.	=95.
0r	2E\]	0r	0r	2g/]	1r
.	2C/	.	.	2e/	.
.	2D\	.	.	2f/	2r
.	[2E\	.	.	4e/	[2g/
.	.	.	.	4d/	.
=96	=96	=96	=96	=96	=96
0r	2E\]	0r	0r	1c	2g/]
.	2C/	.	.	.	2e/
.	2D\	.	.	1r	2f/
.	4C/	.	.	.	4e/
.	4BB/	.	.	.	4d/
=97.	=97.	=97.	=97.	=97.	=97.
0r	2AA/	0r	2r	2r	2c/
.	1E	.	1B	1e	1g
.	2E\	.	2B\	2e/	2g/
=98	=98	=98	=98	=98	=98
0r	2C/	0r	1c	2g/	2e/
.	2.F\	.	.	1f	1a
.	.	.	1c	.	.
.	4E\	.	.	.	.
.	2C/	.	.	[2e/	2g/
=99.	=99.	=99.	=99.	=99.	=99.
0r	1D	0r	1A	2e/]	1f
.	.	.	.	2d/	.
.	1AA	.	1A	1e	1e
=100	=100	=100	=100	=100	=100
0EE	0r	1E	1B	0r	0r
.	.	2G\	2r	.	.
.	.	2G\	2B\	.	.
=101.	=101.	=101.	=101.	=101.	=101.
2FF/	0r	1.A	2A/	0r	0r
2FF/	.	.	1c	.	.
1AA	.	.	.	.	.
.	.	[2E\	4B\	.	.
.	.	.	4A/	.	.
=102	=102	=102	=102	=102	=102
1EE	1r	2E\]	1B	0r	0r
.	.	1G	.	.	.
2r	2r	.	1E	.	.
2C/	2E\	2G\	.	.	.
=103.	=103.	=103.	=103.	=103.	=103.
2C/	2E\	1G	0r	0r	0r
2BB/	2D\	.	.	.	.
2C/	2E\	1A	.	.	.
2AA/	2C/	.	.	.	.
=104	=104	=104	=104	=104	=104
2BB/	2D\	1G	0r	0r	0r
2EE/	2E\	.	.	.	.
1C	2AA/	2r	.	.	.
.	2E\	[2G\	.	.	.
=105.	=105.	=105.	=105.	=105.	=105.
2BB/	2D\	2G\]	0r	0r	0r
1C	1E	2G\	.	.	.
.	.	2E\	.	.	.
[2AA/	[2C/	[2F\	.	.	.
=106	=106	=106	=106	=106	=106
4AA/]	4C/]	2F\]	0r	0r	0r
4GG/	4BB/	.	.	.	.
4FF/	1BB	1E	.	.	.
4EE/	.	.	.	.	.
1FF	.	.	.	.	.
.	2AA/	2D\	.	.	.
=107.	=107.	=107.	=107.	=107.	=107.
[0EE	0BB	[0E	0r	2r	1r
.	.	.	.	2g/	.
.	.	.	.	2g/	2r
.	.	.	.	2g/	2b\
=108	=108	=108	=108	=108	=108
0EE]	0r	0E]	2r	1e	2b\
.	.	.	2e\	.	2b\
.	.	.	2e\	2r	2g/
.	.	.	2e\	2e/	2g/
=109.	=109.	=109.	=109.	=109.	=109.
0r	0r	0r	2c\	1a	1cc
.	.	.	2c\	.	.
.	.	.	1e	1g	1b
=110	=110	=110	=110	=110	=110
0r	0r	1G	1d	2r	2r
.	.	.	.	2g/	2b\
.	.	2G\	2r	2g/	2b\
.	.	[2G\	2d\	2g/	[2b\
=111.	=111.	=111.	=111.	=111.	=111.
0r	0r	2G\]	2d\	1g	2b\]
.	.	2G\	2d\	.	2b\
.	.	2A\	2c\	2f/	2a/
.	.	2G\	2d\	2g/	[2b\
=112	=112	=112	=112	=112	=112
0r	0r	1F	1A	1d	2b\]
.	.	.	.	.	1a
.	.	1E	1B	1e	.
.	.	.	.	.	2g#i/
=113.	=113.	=113.	=113.	=113.	=113.
2r	2r	0r	2A/	0r	1a
2AA/	2C/	.	2c\	.	.
2AA/	2C/	.	2.c\	.	1r
2GG/	2D\	.	.	.	.
.	.	.	4B\	.	.
=114	=114	=114	=114	=114	=114
2.C/	2.E\	0r	2A/	0r	1r
.	.	.	2G/	.	.
4BB/	4D\	.	.	.	.
2.AA/	2.C/	.	2F/	.	2r
.	.	.	2E/	.	2a/
4GG/	4BB/	.	.	.	.
=115.	=115.	=115.	=115.	=115.	=115.
2FF/	2AA/	2r	2D/	2r	2a/
2EE/	2BB/	2G\	2E/	2e/	2g/
1r	1r	2.A\	1r	2e/	2.cc\
.	.	.	.	[2f/	.
.	.	4G\	.	.	4b\
=116	=116	=116	=116	=116	=116
1r	1r	2F\	1r	4f/]	2a/
.	.	.	.	4e/	.
.	.	2E\	.	2c/	2g/
2r	2r	2D\	2r	2d/	2f/
2AA/	2C/	2A\	2c\	2e/	2e/
=117.	=117.	=117.	=117.	=117.	=117.
2AA/	2C/	0r	2.c\	0r	0r
2GG/	2D\	.	.	.	.
.	.	.	4B\	.	.
2.C/	2.E\	.	2A/	.	.
.	.	.	2G/	.	.
4BB/	4D\	.	.	.	.
=118	=118	=118	=118	=118	=118
2.AA/	2.C/	1r	2F/	1r	2r
.	.	.	2E/	.	2a/
4GG/	4BB/	.	.	.	.
2FF/	2AA/	2r	2D/	2r	2a/
2EE/	2BB/	2G\	2E/	2e/	2g/
=119.	=119.	=119.	=119.	=119.	=119.
0r	0r	2.A\	0r	2e/	2.cc\
.	.	.	.	2.f/	.
.	.	4G\	.	.	4b\
.	.	2F\	.	.	2a/
.	.	.	.	4e/	.
.	.	2E\	.	2c/	2g/
=120	=120	=120	=120	=120	=120
1r	1r	2D\	1r	2d/	2f/
.	.	1A	.	2e/	1e
1AA	1C	.	2E/	1c	.
.	.	2A\	2E/	.	2e/
=121.	=121.	=121.	=121.	=121.	=121.
2AA/	2C/	2E\	1A	2c/	2e/
1FF	1C	1F	.	1f	1a
.	.	.	1c	.	.
[2FF/	[2AA/	[2C/	.	[2f/	[2a/
=122	=122	=122	=122	=122	=122
2FF/]	2AA/]	2C/]	2c\	2f/]	2a/]
2GG/	2D\	1G	2B\	1d	1g
2GG/	2BB/	.	2G/	.	.
[2AA/	2E\	2C/	[2c\	2c/	2e/
=123.	=123.	=123.	=123.	=123.	=123.
2AA/]	2C/	1F	2c\]	2A/	2f/
2FF/	2D\	.	1A	2A/	2d/
1EE	1BB	2G\	.	1B	1e
.	.	2E\	2G/	.	.
=124	=124	=124	=124	=124	=124
0r	0AA	2r	1A	0r	0r
.	.	1A	.	.	.
.	.	.	[1c	.	.
.	.	2A\	.	.	.
=125.	=125.	=125.	=125.	=125.	=125.
0r	2r	2A\	1c]	0r	0r
.	2AA/	2A\	.	.	.
.	2.C/	1E	1c	.	.
.	4D\	.	.	.	.
=126	=126	=126	=126	=126	=126
0r	2E\	2r	1c	0r	0r
.	2E\	2.G\	.	.	.
.	2C/	.	1c	.	.
.	.	4F\	.	.	.
.	[2G\	[2E\	.	.	.
=127.	=127.	=127.	=127.	=127.	=127.
0r	2G\]	2E\]	[0B	1r	0r
.	2F\	2D\	.	.	.
.	2G\	1E	.	2r	.
.	[2E\	.	.	[2g/	.
=128	=128	=128	=128	=128	=128
0r	2E\]	1r	0B]	2g/]	0r
.	2D\	.	.	2f/	.
.	1E	[1G	.	2g/	.
.	.	.	.	[2e/	.
=129.	=129.	=129.	=129.	=129.	=129.
0r	1r	1G]	1B	2e/]	0r
.	.	.	.	2d/	.
.	1E	1G	1B	1e	.
=130	=130	=130	=130	=130	=130
0r	2.AA/	1E	0A	2.c/	0r
.	4BB/	.	.	4d/	.
.	2C/	2C/	.	2e/	.
.	[2D\	[2F\	.	[2f/	.
=131.	=131.	=131.	=131.	=131.	=131.
0r	2D\]	2F\]	0A	2f/]	0r
.	2E\	2G\	.	1e	.
.	1F	1A	.	.	.
.	.	.	.	2d/	.
=132	=132	=132	=132	=132	=132
1EE	0E	0G	1B	0e	1g
2EE/	.	.	2r	.	2g/
2EE/	.	.	2B\	.	2g/
=133.	=133.	=133.	=133.	=133.	=133.
1AA	2r	0r	1c	2r	2e/
.	1C	.	.	2e/	1a
2FF/	.	.	2A/	2f/	.
2GG/	2BB/	.	2B\	[2e/	2g/
=134	=134	=134	=134	=134	=134
1AA	2AA/	0r	1c	2e/]	4f/
.	.	.	.	.	4e/
.	1C	.	.	2e/	1a
2FF/	.	.	2A/	2f/	.
2GG/	2BB/	.	2B\	[2e/	2g/
=135.	=135.	=135.	=135.	=135.	=135.
2.AA/	2AA/	0r	2.c\	2e/]	4f/
.	.	.	.	.	4e/
.	2C/	.	.	2f/	2a/
4FF/	.	.	4A/	.	.
2GG/	2BB/	.	2B\	2d/	2g/
2AA/	[2AA/	.	2c\	[2c/	4e/
.	.	.	.	.	[4f/
=136	=136	=136	=136	=136	=136
2FF/	2AA/]	1r	2A/	4c/]	4f/]
.	.	.	.	4B/	4e/
2GG/	2BB/	.	2G/	2B/	1e
2AA/	2C/	2r	1F	1r	.
2BB/	2D\	2D\	.	.	2d/
=137.	=137.	=137.	=137.	=137.	=137.
2.C/	0r	1G	0E	2r	0e
.	.	.	.	2g/	.
4D\	.	.	.	.	.
2.E\	.	2G\	.	2.g/	.
.	.	[2A\	.	.	.
4D\	.	.	.	4f/	.
=138	=138	=138	=138	=138	=138
2C/	1r	2A\]	0r	2e/	0r
2BB/	.	1G	.	2d/	.
1AA	1C	.	.	1c	.
.	.	2F#i\	.	.	.
=139.	=139.	=139.	=139.	=139.	=139.
0GG	1D	1G	0r	1B	0r
.	1D	2r	.	2r	.
.	.	2B\	.	2g/	.
=140	=140	=140	=140	=140	=140
2r	2E\	2B\	0r	2g/	0r
2C/	2.G\	4c\	.	2g/	.
.	.	4B\	.	.	.
2.C/	.	4A\	.	2c/	.
.	4F\	4G\	.	.	.
.	4E\	[2G\	.	[2e/	.
4BB/	4D\	.	.	.	.
=141.	=141.	=141.	=141.	=141.	=141.
1AA	2.C/	2G\]	0r	2e/]	0r
.	.	2F\	.	4d/	.
.	4BB/	.	.	4c/	.
2GG/	2D\	2G\	.	2B/	.
[2C/	2AA/	[2A\	.	[2e/	.
=142	=142	=142	=142	=142	=142
2C/]	1E	2A\]	0r	2e/]	1r
2BB/	.	2G\	.	2.e/	.
1AA	2C/	2E\	.	.	1c
.	.	.	.	4d/	.
.	2AA/	2F\	.	4c/	.
.	.	.	.	4A/	.
=143.	=143.	=143.	=143.	=143.	=143.
1GG	1D	2r	1r	0B	1d
.	.	1G	.	.	.
1GG	1BB	.	1B	.	1d
.	.	2G\	.	.	.
=144	=144	=144	=144	=144	=144
1GG	1D	1G	1B	1r	2d/
.	.	.	.	.	1B
1GG	2D\	1G	1B	1d	.
.	2D\	.	.	.	4A/
.	.	.	.	.	4G/
=145.	=145.	=145.	=145.	=145.	=145.
1GG	2D\	1D	2B\	2d/	0G
.	2D\	.	1G	2d/	.
[1GG	[1BB	1G	.	2d/	.
.	.	.	4F/	[2B/	.
.	.	.	4E/	.	.
=146	=146	=146	=146	=146	=146
1GG]	1BB]	2r	0E	2B/]	2r
.	.	2B\	.	4A/	2g/
.	.	.	.	4G/	.
1EE	2r	2B\	.	1G	2g/
.	2E\	2B\	.	.	2g/
=147.	=147.	=147.	=147.	=147.	=147.
2r	2E\	1A	2r	2r	1a
2AA/	2E\	.	2E/	2c/	.
2AA/	2E\	1A	2E/	2c/	1a
2AA/	2E\	.	2E/	2c/	.
=148	=148	=148	=148	=148	=148
2FF/	0AA	0A	2F/	1c	0cc
2FF/	.	.	2F/	.	.
1FF	.	.	1A	1f	.
=149.	=149.	=149.	=149.	=149.	=149.
0GG	1r	0G	1.B	1d	0b
.	1D	.	.	1g	.
.	.	.	4A/	.	.
.	.	.	4G/	.	.
=150	=150	=150	=150	=150	=150
0r	1E	0r	1G	2r	2r
.	.	.	.	2c/	2e/
.	2D\	.	1r	2d/	2f/
.	[2C/	.	.	[2e/	[2g/
=151.	=151.	=151.	=151.	=151.	=151.
0r	4C/]	0r	0r	2e/]	2g/]
.	4D\	.	.	.	.
.	4E\	.	.	4d/	4f/
.	4F\	.	.	4c/	4e/
.	2G\	.	.	2B/	2d/
.	2C/	.	.	[2c/	[2e/
=152	=152	=152	=152	=152	=152
0r	1E	0r	0r	2c/]	2e/]
.	.	.	.	2e/	2c/
.	2D\	.	.	2f/	2d/
.	[2C/	.	.	[2g/	[2e/
=153.	=153.	=153.	=153.	=153.	=153.
0r	4C/]	0r	0r	2g/]	2e/]
.	4D\	.	.	.	.
.	4E\	.	.	4f/	4d/
.	4F\	.	.	4e/	4c/
.	2G\	.	.	2d/	2B/
.	2C/	.	.	2e/	[2c/
=154	=154	=154	=154	=154	=154
1r	0r	0r	2r	1g	2c/]
.	.	.	2B\	.	2g/
2r	.	.	2c\	2f/	2a/
[2GG/	.	.	[2d\	2g/	[2b\
=155.	=155.	=155.	=155.	=155.	=155.
4GG/]	0r	0r	2d\]	0d	4b\]
4AA/	.	.	.	.	2a/
4BB/	.	.	4c\	.	.
4C/	.	.	4B\	.	4g/
2D\	.	.	1A	.	2.f#i/
2D\	.	.	.	.	.
.	.	.	.	.	4e/
=156	=156	=156	=156	=156	=156
1E	0r	1.G	1G	1B	1g
1E	.	.	[1c	[1e	2r
.	.	2G\	.	.	[2g/
=157.	=157.	=157.	=157.	=157.	=157.
1.C	1r	1G	2c\]	2e/]	2g/]
.	.	.	2c\	2e/	2g/
.	1E	[1G	1c	2e/	2g/
2C/	.	.	.	2e/	2g/
=158	=158	=158	=158	=158	=158
1C	1E	1G]	1c	1c	0e
1C	1E	1E	1G	2r	.
.	.	.	.	2g/	.
=159.	=159.	=159.	=159.	=159.	=159.
1GG	1D	2r	2r	2.g/	1r
.	.	2G\	2B\	.	.
.	.	.	.	4f/	.
1r	1r	2G\	2B\	1e	2r
.	.	2G\	2B\	.	2b\
=160	=160	=160	=160	=160	=160
1r	2G\	1E	1G	2r	2b\
.	2G\	.	.	2g/	2b\
2r	2G\	1r	1r	2g/	2.b\
2GG/	2G\	.	.	2g/	.
.	.	.	.	.	4a/
=161.	=161.	=161.	=161.	=161.	=161.
2GG/	1D	2r	2r	2.g/	1g
2GG/	.	2G\	2B\	.	.
.	.	.	.	4f/	.
2.GG/	1E	2G\	2B\	2e/	2r
.	.	2G\	2B\	2e/	[2g/
4FF/	.	.	.	.	.
=162	=162	=162	=162	=162	=162
1EE	1E	2.G\	2.B\	1.g	4g/]
.	.	.	.	.	4a/
.	.	.	.	.	2b\
.	.	4F\	4A/	.	.
2r	1E	[1E	2G/	.	2e/
2AA/	.	.	2A/	2e/	2cc\
=163.	=163.	=163.	=163.	=163.	=163.
2.GG/	1G	0E]	1B	0e	2.b\
4FF/	.	.	.	.	4a/
1EE	4G\	.	1B	.	1g
.	4F\	.	.	.	.
.	4E\	.	.	.	.
.	4D\	.	.	.	.
=164	=164	=164	=164	=164	=164
0FF	1C	0r	0A	0r	2r
.	.	.	.	.	2a/
.	1D	.	.	.	2a/
.	.	.	.	.	2f/
=165.	=165.	=165.	=165.	=165.	=165.
1EE	2E\	0r	0r	2r	2g/
.	2C/	.	.	2g/	2e/
1r	2D\	.	.	2a/	2f/
.	2F\	.	.	2f/	2d/
=166	=166	=166	=166	=166	=166
0r	2E\	0r	0r	2g/	2e/
.	2C/	.	.	2e/	1a
.	2D\	.	.	2f/	.
.	2F\	.	.	2d/	2f/
=167.	=167.	=167.	=167.	=167.	=167.
0r	2E\	2r	0r	2e/	2g/
.	2AA/	1A	.	1a	1cc
.	1r	.	.	.	.
.	.	2A\	.	2f/	2a/
=168	=168	=168	=168	=168	=168
0r	0r	2G\	0r	2g/	2.b\
.	.	2G\	.	2e/	.
.	.	.	.	.	4g/
.	.	1F	.	2f/	2a/
.	.	.	.	2d/	2f/
=169.	=169.	=169.	=169.	=169.	=169.
0r	0r	2E\	1r	2e/	2g/
.	.	2C/	.	2g/	1e
.	.	1D	1A	1f	.
.	.	.	.	.	2d/
=170	=170	=170	=170	=170	=170
2r	1.E	1.G	1B	0e	1e
2EE/	.	.	.	.	.
2.EE/	.	.	1B	.	1r
.	4D\	4F\	.	.	.
4FF/	4C/	4E\	.	.	.
=171.	=171.	=171.	=171.	=171.	=171.
2GG/	2BB/	1E	2G/	0r	0r
1AA	2AA/	.	1c	.	.
.	2.E\	1r	.	.	.
[2EE/	.	.	[2G/	.	.
.	4D\	.	.	.	.
=172	=172	=172	=172	=172	=172
4EE/]	2C/	0r	4G/]	0r	0r
4FF/	.	.	4A/	.	.
2GG/	2BB/	.	2B\	.	.
2AA/	2AA/	.	2c\	.	.
[2EE/	[2E\	.	[2B\	.	.
=173.	=173.	=173.	=173.	=173.	=173.
2EE/]	4E\]	0r	2B\]	0r	0r
.	4D\	.	.	.	.
2AA/	2C/	.	2A/	.	.
2GG/	2BB/	.	2B\	.	.
2AA/	[2AA/	.	2c\	.	.
=174	=174	=174	=174	=174	=174
1FF	4AA/]	1r	1A	0r	0r
.	4BB/	.	.	.	.
.	4C/	.	.	.	.
.	4D\	.	.	.	.
1EE	2E\	2r	1G	.	.
.	2C/	2E\	.	.	.
=175.	=175.	=175.	=175.	=175.	=175.
0r	2D\	2F\	0r	2r	0r
.	1F	1D	.	2.A/	.
.	.	.	.	4B/	.
.	2E\	2G\	.	4c/	.
.	.	.	.	4d/	.
=176	=176	=176	=176	=176	=176
0r	0r	2E\	0r	2e/	0r
.	.	2A\	.	2c/	.
.	.	1D	.	2d/	.
.	.	.	.	[2f/	.
=177.	=177.	=177.	=177.	=177.	=177.
1AA	0r	2.A\	2r	2f/]	0r
.	.	.	2.E/	2e/	.
.	.	4E\	.	.	.
2GG/	.	1E	.	2r	.
.	.	.	4F/	.	.
[2EE/	.	.	4G/	2e/	.
.	.	.	4A/	.	.
=178	=178	=178	=178	=178	=178
2EE/]	0r	2r	2B\	2g/	1r
2GG/	.	2E\	2G/	2e/	.
2FF/	.	2F\	2A/	1a	2r
2AA/	.	2E\	[2c\	.	[2e/
=179.	=179.	=179.	=179.	=179.	=179.
0EE	0E	0G	2c\]	2g/	4e/]
.	.	.	.	.	4f/
.	.	.	2B\	1e	4g/
.	.	.	.	.	4a/
.	.	.	1r	.	2b\
.	.	.	.	2g/	2g/
=180	=180	=180	=180	=180	=180
1FF	1AA	1C	0r	2f/	2a/
.	.	.	.	2a/	1cc
1EE	[1E	1G	.	2g/	.
.	.	.	.	2e/	2b\
=181.	=181.	=181.	=181.	=181.	=181.
1AA	2E\]	2.C/	2r	2r	0r
.	4D\	.	2.E/	2e/	.
.	4C/	4D\	.	.	.
2GG/	[1BB	1E	.	2.e/	.
.	.	.	4F/	.	.
[2EE/	.	.	4G/	.	.
.	.	.	4A/	4f/	.
=182	=182	=182	=182	=182	=182
2EE/]	1BB]	2r	2B\	2g/	1r
2GG/	.	2E\	2G/	2e/	.
2FF/	1AA	2F\	2A/	1a	2r
2AA/	.	2E\	[2c\	.	[2e/
=183.	=183.	=183.	=183.	=183.	=183.
1EE	1E	0G	2c\]	2g/	4e/]
.	.	.	.	.	4f/
.	.	.	1B	1e	4g/
.	.	.	.	.	4a/
2r	1E	.	.	.	2b\
2EE/	.	.	2B\	2g/	2g/
=184	=184	=184	=184	=184	=184
1FF	2.C/	1r	2.A/	2f/	2a/
.	.	.	.	2a/	1cc
.	4D\	.	4B\	.	.
2.EE/	[1E	[1G	4c\	2.g/	.
.	.	.	4d\	.	.
.	.	.	[2e\	.	[2b\
4FF/	.	.	.	4f/	.
=185.	=185.	=185.	=185.	=185.	=185.
2GG/	1E]	2G\]	4e\]	0e	2b\]
.	.	.	4d\	.	.
2AA/	.	2C/	2c\	.	1a
1EE	1E	1G	1B	.	.
.	.	.	.	.	2g#i/
=186	=186	=186	=186	=186	=186
*M3/1	*M3/1	*M3/1	*M3/1	*M3/1	*M3/1
*met(3)	*met(3)	*met(3)	*met(3)	*met(3)	*met(3)
1.AA	0.r	0c	0.A	0.e	1a
.	.	.	.	.	1r
2BB/	.	.	.	.	.
2C/	.	1c	.	.	1a
2D\	.	.	.	.	.
=187.	=187.	=187.	=187.	=187.	=187.
0E	1E	1B	0.r	1r	1.g
.	1G	1c	.	1r	.
.	.	.	.	.	2e/
1D	1F	1d	.	1a	1f
=188	=188	=188	=188	=188	=188
0E	1G	0B	1r	1.g	1e
.	1E	.	1r	.	1g
.	.	.	.	2e/	.
1r	1D	1r	1A	1f	1a
=189.	=189.	=189.	=189.	=189.	=189.
0EE	0G	0E	1.B	1e	1g
.	.	.	.	1g	1e
.	.	.	2c\	.	.
1DD	1r	1A	1d	1f	1f
=190	=190	=190	=190	=190	=190
0EE	1.E	1G	1B	1e	1g
.	.	1E	1G	1g	1b
.	2D\	.	.	.	.
1r	1C	1F	1A	1f	1a
=191.	=191.	=191.	=191.	=191.	=191.
1.EE	0BB	1.G	0B	1e	1.g
.	.	.	.	0g	.
2FF/	.	2F\	.	.	2a/
1GG	1BB	2D\	1G	.	1b
.	.	2E\	.	.	.
=192	=192	=192	=192	=192	=192
0FF	0C	0F	1r	0a	1a
.	.	.	1.c	.	0cc
1FF	1AA	1F	.	1a	.
.	.	.	2A/	.	.
=193.	=193.	=193.	=193.	=193.	=193.
1GG	1r	1D	1d	0g	1.b
1EE	1E	1E	1G	.	.
.	.	.	.	.	2g/
1FF	1AA	1C	1c	1f	1a
=194	=194	=194	=194	=194	=194
1GG	1BB	1G	1B	1e	1g
1AA	1C	1r	1A	1c	1e
1FF	1AA	1C	1c	1f	1a
=195.	=195.	=195.	=195.	=195.	=195.
1GG	1BB	1.G	1B	0e	1g
1AA	1C	.	1A	.	1e
.	.	2E\	.	.	.
1FF	1AA	1F	[1c	1d	1a
=196	=196	=196	=196	=196	=196
0EE	1.E	1G	2c\]	0e	1g
.	.	.	2B\	.	.
.	.	1C	1G	.	1e
.	2C/	.	.	.	.
1r	1D	1r	1F	1r	1f
=197.	=197.	=197.	=197.	=197.	=197.
0.r	1E	0c	2G/	0.r	0e
.	.	.	1E	.	.
.	1C	.	.	.	.
.	.	.	2G/	.	.
.	1D	1A	1F	.	1d
=198	=198	=198	=198	=198	=198
0EE	1.G	0B	[0.E	1.e	[0.e
.	2F\	.	.	2d/	.
[1GG	1E	[1G	.	2c/	.
.	.	.	.	2B/	.
=199.	=199.	=199.	=199.	=199.	=199.
1GG]	1D	1G]	0.E]	0B	0.e]
0AA	1.C	1E	.	.	.
.	.	1C	.	1A	.
.	2BB/	.	.	.	.
=200	=200	=200	=200	=200	=200
0.EEl	0.BBl	0.Gl	0.El	0.Bl	0.el
==	==	==	==	==	==
*-	*-	*-	*-	*-	*-
!!!RDF**kern: l=long note in original notation
!!!RDF**kern: i=editorial accidental
!!!ENC:	Chris Gage 07-02-2013
!!!END:	2013/07/31/
!!!EED:	Jesse Rodin
!!!EEV:	2013/08/05/
!!!ONB:	Translated from MusicXML and edited on 2013/08/05/ by Craig Sapp
!!muse2ps: C^@{COM}^i2I150v95,95,95,95,95,130Q16c80
